packages/icons/src/__generated__/nav/svg/nav-rosettaProduct-12-inactive.svg

<svg xmlns="http://www.w3.org/2000/svg" fill="#1652F0" viewBox="0 0 12 12"><path d="M10.489 3.245a2.25 2.25 0 1 1-4.5 0 2.25 2.25 0 0 1 4.5 0Zm-9.5 6.75h4v-8h-4v8Zm8.829-4-3.83 1.17 1.171 3.83 3.83-1.17-1.171-3.83Z"/></svg>

<svg xmlns="http://www.w3.org/2000/svg" fill="#1652F0" viewBox="0 0 12 12"><path d="M10.5 3.25a2.25 2.25 0 1 1-4.5 0 2.25 2.25 0 0 1 4.5 0ZM1 10h4V2H1v8Zm1.2-6.8h1.6v5.6H2.2V3.2ZM9.83 6 6 7.17 7.17 11 11 9.83 9.83 6Z"/></svg>
